assets/icons/informations/page_view_outline.svg

<svg viewBox="0 0 24 24" xmlns="http://www.w3.org/2000/svg">
<path d="M15.625 17.025C15.8083 17.2083 16.0417 17.3 16.325 17.3C16.6083 17.3 16.8417 17.2083 17.025 17.025C17.2083 16.8417 17.3 16.6083 17.3 16.325C17.3 16.0417 17.2083 15.8083 17.025 15.625L15.3 13.9C15.5333 13.55 15.7083 13.175 15.825 12.775C15.9417 12.375 16 11.95 16 11.5C16 10.25 15.5627 9.18733 14.688 8.312C13.8127 7.43733 12.75 7 11.5 7C10.25 7 9.18733 7.43733 8.312 8.312C7.43733 9.18733 7 10.25 7 11.5C7 12.75 7.43733 13.8127 8.312 14.688C9.18733 15.5627 10.25 16 11.5 16C11.9333 16 12.354 15.9417 12.762 15.825C13.1707 15.7083 13.55 15.5333 13.9 15.3L15.625 17.025ZM11.5 14C10.8 14 10.2083 13.7583 9.725 13.275C9.24167 12.7917 9 12.2 9 11.5C9 10.8 9.24167 10.2083 9.725 9.725C10.2083 9.24167 10.8 9 11.5 9C12.2 9 12.7917 9.24167 13.275 9.725C13.7583 10.2083 14 10.8 14 11.5C14 12.2 13.7583 12.7917 13.275 13.275C12.7917 13.7583 12.2 14 11.5 14ZM4 20C3.45 20 2.97933 19.8043 2.588 19.413C2.196 19.021 2 18.55 2 18V6C2 5.45 2.196 4.97933 2.588 4.588C2.97933 4.196 3.45 4 4 4H20C20.55 4 21.021 4.196 21.413 4.588C21.8043 4.97933 22 5.45 22 6V18C22 18.55 21.8043 19.021 21.413 19.413C21.021 19.8043 20.55 20 20 20H4ZM4 18H20V6H4V18Z" fill="inherit"/>
</svg>

<svg viewBox="0 0 24 24" xmlns="http://www.w3.org/2000/svg"><path d="M15.6 17c.2.2.4.3.7.3.3 0 .5 0 .7-.3.2-.2.3-.4.3-.7 0-.3 0-.5-.3-.7L15.3 14a4 4 0 0 0 .7-2.4c0-1.3-.4-2.3-1.3-3.2-.9-.9-2-1.3-3.2-1.3-1.3 0-2.3.4-3.2 1.3-.9.9-1.3 2-1.3 3.2 0 1.3.4 2.3 1.3 3.2.9.9 2 1.3 3.2 1.3a4.6 4.6 0 0 0 2.4-.7l1.7 1.7Zm-4.1-3c-.7 0-1.3-.2-1.8-.7-.5-.5-.7-1.1-.7-1.8s.2-1.3.7-1.8c.5-.5 1.1-.7 1.8-.7s1.3.2 1.8.7c.5.5.7 1.1.7 1.8s-.2 1.3-.7 1.8c-.5.5-1.1.7-1.8.7ZM4 20a2 2 0 0 1-1.4-.6A2 2 0 0 1 2 18V6c0-.5.2-1 .6-1.4A2 2 0 0 1 4 4h16c.6 0 1 .2 1.4.6.4.4.6.9.6 1.4v12c0 .6-.2 1-.6 1.4a2 2 0 0 1-1.4.6H4Zm0-2h16V6H4v12Z" fill="inherit"/></svg>
